X:952
L:1/16
M:2/4
K:A
 e2 | eac'a eac'2 | Adfd Adf2 | eac'a eac'2 | babc' b4 | eac'a eac'2 | Adfd Adf2 | eac'a eac'2 | 
 babc' a2 :: a2 | fefg agaf | e^def ecAc | BABc dcdB | ABcd e2a2 | fefg agaf | e^def ecAc | 
 BABc dcdB | A2g2 a2 :|

